app/images/bread-icon.svg

<svg width="57" height="46" viewBox="0 0 57 46" fill="none" xmlns="http://www.w3.org/2000/svg">
<path d="M2.00003 33.2351C2.00003 31.6424 2.35248 30.0617 3.28661 28.7725C6.03466 24.9763 13.4891 17.2251 28.5 17.2251C43.5123 17.2251 50.9654 24.9777 53.7135 28.7725C54.6476 30.0617 55 31.6424 55 33.2351C55 36.0172 53.8948 38.6854 51.9276 40.6526C49.9603 42.6199 47.2921 43.7251 44.51 43.7251H12.4901C9.70793 43.7251 7.03975 42.6199 5.07249 40.6526C3.10523 38.6854 2.00003 36.0172 2.00003 33.2351V33.2351Z" stroke="#A61D1D" stroke-width="3.70551" stroke-linecap="round" stroke-linejoin="round"/>
<path d="M49.7 24.437C45.6005 20.9085 38.8456 17.225 28.5 17.225C18.1544 17.225 11.3996 20.9072 7.3 24.437M12.6 2.65V7.95V2.65ZM15.25 19.875V25.175V19.875ZM44.4 2.65V7.95V2.65ZM41.75 19.875V25.175V19.875ZM28.5 0V7.95V0ZM28.5 17.225V27.825V17.225Z" stroke="#A61D1D" stroke-width="3.70551" stroke-linecap="round"/>
</svg>

<svg width="57" height="46" fill="none" xmlns="http://www.w3.org/2000/svg"><path d="M2 33.235c0-1.593.352-3.173 1.287-4.462C6.035 24.976 13.489 17.224 28.5 17.224c15.012 0 22.465 7.753 25.214 11.547.934 1.29 1.286 2.87 1.286 4.463a10.49 10.49 0 0 1-10.49 10.49H12.49A10.49 10.49 0 0 1 2 33.235v0Z" stroke="#A61D1D" stroke-width="3.706" stroke-linecap="round" stroke-linejoin="round"/><path d="M49.7 24.437c-4.1-3.529-10.854-7.212-21.2-7.212s-17.1 3.682-21.2 7.212M12.6 2.65v5.3-5.3Zm2.65 17.225v5.3-5.3ZM44.4 2.65v5.3-5.3Zm-2.65 17.225v5.3-5.3ZM28.5 0v7.95V0Zm0 17.225v10.6-10.6Z" stroke="#A61D1D" stroke-width="3.706" stroke-linecap="round"/></svg>
